X:1
T:Adoramus te
T:Giovanni Pierluigi da Palestrina, 1526-1594
T:Adoramus te
C:Giovanni Pierluigi da Palestrina, 1526-1594
%%score 1 2 3 4
L:1/8
M:4/4
K:C
V:1 treble nm="S"
V:2 treble nm="A"
V:3 bass nm="T"
V:4 bass nm="B"
V:1
 A8 | ^G8 | A8 | B8 | c8 | A8 | ^G8 | z8 | c8 | B4 A8 | =G6 | G2 G4 | G8 | G4 z4 | c4 c2 c2 | %15
w: Ad-|o-|ra-|mus|te,|Chri-|ste||et|be- ne-|di-|ci- mus|ti-|bi,|qui- a per|
 c4 B4 | B4 A4 | (A4 ^G4) | ^G4 A6 | A2 A4 | =G4 (F4- | F4 E4) | E4 z2 ^G2 | ^G2 G2 A4 | (B4 c4) | %25
w: sanc- tam|cru- cem|tu- *|am re-|de- mi-|sti mun-||dum, qui|pas- sus es|pro *|
 d4 G4 | z2 c4 B2 | B8 | A6 ^F2 | ^F4 G4- | G2 =F2 E2 D2 | E4 !fermata!E4 |] %32
w: no- bis!|Do- mi-|ne,|do- mi-|ne, mi-|* se- re- re|no- bis!|
V:2
 E8 | E8 | (C4 D4) | B,8 | E8 | (E2 DC D4) | E8 | z8 | E8 | (D2 G2) E8 | E6 | E2 E4 | (E2 DC D4) | %13
w: Ad-|o-|ra- *|mus|te,|Chri- * * *|ste||et|be- * ne-|di-|ci- mus|ti- * * *|
 E4 z4 | A4 F2 F2 | E4 G4 | G4 E4 | E8 | E4 E6 | E2 F4 | E4 (A,4 | D2 A2 A4) | ^G4 z2 E2 | %23
w: bi,|qui- a per|sanc- tam|cru- cem|tu-|am re-|de- mi-|sti mun-||dum, qui|
 E2 E2 (E2 ^F2) | =G8 | =F4 D4 | E4 D4 | G8 | (E4 ^F2) D2 | D4 B,4 | D4 C2 A,2 | B,4 ^C4 |] %32
w: pas- sus es *|pro|no- bis!|Do- mi-|ne,|do- * mi-|ne, mi-|se- re- re|no- bis!|
V:3
 C8 | B,8 | A,8 | ^G,8 | A,8 | A,8 | B,8 | z8 | G,8 | B,4 C8 | B,6 | C2 C4 | (C6 B,2) | C4 z4 | %14
w: Ad-|o-|ra-|mus|te,|Chri-|ste||et|be- ne-|di-|ci- mus|ti- *|bi,|
 C4 A,2 A,2 | C4 E4 | D4 C4 | (C4 B,4) | B,4 C6 | C2 D4 | (D2 ^C2) (D4 | A,4 =C4) | B,4 z2 B,2 | %23
w: qui- a per|sanc- tam|cru- cem|tu- *|am re-|de- mi-|sti * mun-||dum, qui|
 B,2 B,2 C4 | (D4 E4) | A,4 B,4 | G,6 B,2 | D8 | C4 A,4 | A,4 G,2 G,2 | A,4 (G,2 A,2) | %31
w: pas- sus es|pro *|no- bis!|Do- mi-|ne,|do- mi-|ne, mi- se-|re- re *|
 (A,2 ^G,2) A,4 |] %32
w: no- * bis!|
V:4
 A,8 | E,8 | F,8 | E,8 | A,,8 | F,8 | E,8 | z8 | C,8 | G,4 A,8 | E,6 | C,2 C,4 | G,8 | C,4 z4 | %14
w: Ad-|o-|ra-|mus|te,|Chri-|ste||et|be- ne-|di-|ci- mus|ti-|bi,|
 F,4 F,2 F,2 | A,4 E,4 | G,4 A,4 | E,8 | E,4 A,6 | A,2 D,4 | E,4 (D,4- | D,4 A,4) | E,4 z2 E,2 | %23
w: qui- a per|sanc- tam|cru- cem|tu-|am re-|de- mi-|sti mun-||dum, qui|
 E,2 E,2 A,4 | (G,4 E,4) | F,4 G,4 | C,4 G,4 | G,8 | A,4 D,4 | D,4 E,2 E,2 | D,4 (E,2 F,2) | %31
w: pas- sus es|pro *|no- bis!|Do- mi-|ne,|do- mi-|ne, mi- se-|re- re *|
 E,4 A,,4 |] %32
w: no- bis!|

